; generated by Slic3r 1.2.9 on 2016-03-13 at 10:11:50

; external perimeters extrusion width = 0.40mm
; perimeters extrusion width = 0.48mm
; infill extrusion width = 0.48mm
; solid infill extrusion width = 0.48mm
; top infill extrusion width = 0.48mm

M107
M190 S75 ; set bed temperature
M104 S208 ; set temperature
G28 ; home all axes
G1 Z5 F5000 ; lift nozzle

M109 S208 ; wait for temperature to be reached
G21 ; set units to millimeters
G90 ; use absolute coordinates
M82 ; use absolute distances for extrusion
G92 E0
G1 Z0.400 F7800.000
G1 X0.000 Y27.214 F7800.000
G1 X-22.500 Y27.214 E2.55412 F1800.000
G1 X-24.775 Y26.817 E2.81623
G1 X-26.780 Y25.673 E3.07833
G1 X-28.280 Y23.917 E3.34044
G1 X-29.095 Y21.757 E3.60255
G1 X-29.214 Y20.500 E3.74588
G1 X-29.214 Y-20.500 E8.40006
G1 X-28.817 Y-22.775 E8.66217
G1 X-27.673 Y-24.780 E8.92427
G1 X-25.917 Y-26.280 E9.18638
G1 X-23.757 Y-27.095 E9.44849
G1 X-22.500 Y-27.214 E9.59183
G1 X22.500 Y-27.214 E14.70007
G1 X24.775 Y-26.817 E14.96218
G1 X26.780 Y-25.673 E15.22428 F1800.000
G1 X28.280 Y-23.917 E15.48639
G1 X29.095 Y-21.757 E15.74849
G1 X29.214 Y-20.500 E15.89183
G1 X29.214 Y20.500 E20.54601
G1 X28.817 Y22.775 E20.80812
G1 X27.673 Y24.780 E21.07022
G1 X25.917 Y26.280 E21.33233
G1 X23.757 Y27.095 E21.59443
G1 X22.500 Y27.214 E21.73777
G1 X0.060 Y27.214 E24.28508
G1 E22.28508 F2400.00000
G92 E0
G1 X-19.328 Y17.328 F7800.000
G1 E2.00000 F2400.00000
G1 X20.672 Y17.328 E6.54066 F1800.000
G1 X20.672 Y18.672 E6.69316
G1 X-20.672 Y18.672 E11.38631
G1 X-20.672 Y-18.672 E15.62540
G1 X20.672 Y-18.672 E20.31856
G1 X20.672 Y-17.328 E20.47105
G1 X-19.328 Y-17.328 E25.01171
G1 X-19.328 Y17.268 E28.93900
G1 X-18.614 Y16.614 F7800.000
G1 X21.386 Y16.614 E33.47967 F1800.000
G1 X21.386 Y19.386 E33.79430
G1 X-21.386 Y19.386 E38.64959
G1 X-21.386 Y-19.386 E43.05082
G1 X21.386 Y-19.386 E47.90611
G1 X21.386 Y-16.614 E48.22074
G1 X-18.614 Y-16.614 E52.76140
G1 X-18.614 Y16.554 E56.52656
G1 X-17.900 Y15.900 F7800.000
G1 X22.100 Y15.900 E61.06722 F1800.000
G1 X22.100 Y20.100 E61.54399
G1 X-22.100 Y20.100 E66.56142
G1 X-22.100 Y-20.100 E71.12478
G1 X22.100 Y-20.100 E76.14222
G1 X22.100 Y-15.900 E76.61899
G1 X-17.900 Y-15.900 E81.15965
G1 X-17.900 Y15.840 E84.76266
G1 X-17.900 Y16.300 F7800.000
G1 X20.315 Y18.000 F7800.000
G1 X-19.685 Y18.000 E94.38977 F1800.000
G1 X-19.946 Y17.946 E94.45382
G1 X-20.000 Y17.685 E94.51788
G1 X-20.000 Y-17.685 E103.03084
G1 X-19.946 Y-17.946 E103.09490
G1 X-19.685 Y-18.000 E103.15895
G1 X20.315 Y-18.000 E112.78606
M104 S200 ; set temperature
M140 S70 ; wait for bed temperature to be reached
G1 Z0.700 F7800.000
G1 E110.78606 F2400.00000
G92 E0
G1 X-18.496 Y16.496 F7800.000
G1 E2.00000 F2400.00000
G1 X21.504 Y16.496 E3.99744 F3600.000
G1 X21.504 Y19.504 E4.14764
G1 X-21.504 Y19.504 E6.29527
G1 X-21.504 Y-19.504 E8.24316
G1 X21.504 Y-19.504 E10.39080
G1 X21.504 Y-16.496 E10.54099
G1 X-18.496 Y-16.496 E12.53843
G1 X-18.496 Y16.436 E14.18294
G1 X-18.077 Y16.077 F7800.000
G1 X21.923 Y16.077 E16.18038 F3600.000
G1 X21.923 Y19.923 E16.37241
G1 X-21.923 Y19.923 E18.56188
G1 X-21.923 Y-19.923 E20.55161
G1 X21.923 Y-19.923 E22.74108
G1 X21.923 Y-16.077 E22.93310
G1 X-18.077 Y-16.077 E24.93055
G1 X-18.077 Y16.017 E26.53322
G1 X-17.700 Y15.700 F7800.000
G1 X22.300 Y15.700 E28.13363 F1800.000
G1 X22.300 Y20.300 E28.31768
G1 X-22.300 Y20.300 E30.10214
G1 X-22.300 Y-20.300 E31.72656
G1 X22.300 Y-20.300 E33.51102
G1 X22.300 Y-15.700 E33.69507
G1 X-17.700 Y-15.700 E35.29549
G1 X-17.700 Y15.640 E36.54941
G1 X-17.700 Y16.100 F7800.000
G1 X-18.219 Y-16.743 F7800.000
G1 X-15.706 Y-19.257 E36.72697 F1200.000
G1 X-15.113 Y-19.257 E36.75657
G1 X-17.627 Y-16.743 E36.93413
G1 X-17.034 Y-16.743 E36.96373
G1 X-14.521 Y-19.257 E37.14128
G1 X-13.928 Y-19.257 E37.17088
G1 X-16.441 Y-16.743 E37.34844
G1 X-15.849 Y-16.743 E37.37804
G1 X-13.335 Y-19.257 E37.55560
G1 X-12.743 Y-19.257 E37.58520
G1 X-15.256 Y-16.743 E37.76276
G1 X-14.664 Y-16.743 E37.79236
G1 X-12.150 Y-19.257 E37.96992
G1 X-11.558 Y-19.257 E37.99952
G1 X-14.071 Y-16.743 E38.17707
G1 X-13.478 Y-16.743 E38.20667
G1 X-10.965 Y-19.257 E38.38423
G1 X-10.372 Y-19.257 E38.41383
G1 X-12.886 Y-16.743 E38.59139
G1 X-12.293 Y-16.743 E38.62099
G1 X-9.780 Y-19.257 E38.79855
G1 X-9.187 Y-19.257 E38.82815
G1 X-11.701 Y-16.743 E39.00571
G1 X-11.108 Y-16.743 E39.03531
G1 X-8.595 Y-19.257 E39.21286
G1 X-8.002 Y-19.257 E39.24246
G1 X-10.516 Y-16.743 E39.42002
G1 X-9.923 Y-16.743 E39.44962
G1 X-7.410 Y-19.257 E39.62718
G1 X-6.817 Y-19.257 E39.65678
G1 X-9.330 Y-16.743 E39.83434
G1 X-8.738 Y-16.743 E39.86394
G1 X-6.224 Y-19.257 E40.04150
G1 X-5.632 Y-19.257 E40.07110
G1 X-8.145 Y-16.743 E40.24865
G1 X-7.553 Y-16.743 E40.27825
G1 X-5.039 Y-19.257 E40.45581
G1 X-4.447 Y-19.257 E40.48541
G1 X-6.960 Y-16.743 E40.66297
G1 X-6.367 Y-16.743 E40.69257
G1 X-3.854 Y-19.257 E40.87013
G1 X-3.261 Y-19.257 E40.89973
G1 X-5.775 Y-16.743 E41.07729
G1 X-5.182 Y-16.743 E41.10689
G1 X-2.669 Y-19.257 E41.28444
G1 X-2.076 Y-19.257 E41.31405
G1 X-4.590 Y-16.743 E41.49160
G1 X-3.997 Y-16.743 E41.52120
G1 X-1.484 Y-19.257 E41.69876
G1 X-0.891 Y-19.257 E41.72836
G1 X-3.405 Y-16.743 E41.90592
G1 X-2.812 Y-16.743 E41.93552
G1 X-0.299 Y-19.257 E42.11308
G1 X0.294 Y-19.257 E42.14268
G1 X-2.219 Y-16.743 E42.32023
G1 X-1.627 Y-16.743 E42.34984
G1 X0.887 Y-19.257 E42.52739
G1 X1.479 Y-19.257 E42.55699
G1 X-1.034 Y-16.743 E42.73455
G1 X-0.442 Y-16.743 E42.76415
G1 X2.072 Y-19.257 E42.94171
G1 X2.664 Y-19.257 E42.97131
G1 X0.151 Y-16.743 E43.14887
G1 X0.744 Y-16.743 E43.17847
G1 X3.257 Y-19.257 E43.35602
G1 X3.850 Y-19.257 E43.38563
G1 X1.336 Y-16.743 E43.56318
G1 X1.929 Y-16.743 E43.59278
G1 X4.442 Y-19.257 E43.77034
G1 X5.035 Y-19.257 E43.79994
G1 X2.521 Y-16.743 E43.97750
G1 X3.114 Y-16.743 E44.00710
G1 X5.627 Y-19.257 E44.18466
G1 X6.220 Y-19.257 E44.21426
G1 X3.706 Y-16.743 E44.39181
G1 X4.299 Y-16.743 E44.42142
G1 X6.812 Y-19.257 E44.59897
G1 X7.405 Y-19.257 E44.62857
G1 X4.892 Y-16.743 E44.80613
G1 X5.484 Y-16.743 E44.83573
G1 X7.998 Y-19.257 E45.01329
G1 X8.590 Y-19.257 E45.04289
G1 X6.077 Y-16.743 E45.22045
G1 X6.669 Y-16.743 E45.25005
G1 X9.183 Y-19.257 E45.42760
G1 X9.775 Y-19.257 E45.45721
G1 X7.262 Y-16.743 E45.63476
G1 X7.855 Y-16.743 E45.66436
G1 X10.368 Y-19.257 E45.84192
G1 X10.961 Y-19.257 E45.87152
G1 X8.447 Y-16.743 E46.04908
G1 X9.040 Y-16.743 E46.07868
G1 X11.553 Y-19.257 E46.25624
G1 X12.146 Y-19.257 E46.28584
G1 X9.632 Y-16.743 E46.46339
G1 X10.225 Y-16.743 E46.49300
G1 X12.738 Y-19.257 E46.67055
G1 X13.331 Y-19.257 E46.70015
G1 X10.817 Y-16.743 E46.87771
G1 X11.410 Y-16.743 E46.90731
G1 X13.923 Y-19.257 E47.08487
G1 X14.516 Y-19.257 E47.11447
G1 X12.003 Y-16.743 E47.29203
G1 X12.595 Y-16.743 E47.32163
G1 X15.109 Y-19.257 E47.49918
G1 X15.701 Y-19.257 E47.52879
G1 X13.188 Y-16.743 E47.70634
G1 X13.780 Y-16.743 E47.73594
G1 X16.294 Y-19.257 E47.91350
G1 X16.886 Y-19.257 E47.94310
G1 X14.373 Y-16.743 E48.12066
G1 X14.966 Y-16.743 E48.15026
G1 X17.479 Y-19.257 E48.32782
G1 X18.072 Y-19.257 E48.35742
G1 X15.558 Y-16.743 E48.53497
G1 X16.151 Y-16.743 E48.56458
G1 X18.664 Y-19.257 E48.74213
G1 X19.257 Y-19.257 E48.77173
G1 X16.743 Y-16.743 E48.94929
G1 X17.336 Y-16.743 E48.97889
G1 X19.849 Y-19.257 E49.15645
G1 X20.442 Y-19.257 E49.18605
G1 X17.928 Y-16.743 E49.36361
G1 X18.521 Y-16.743 E49.39321
G1 X21.034 Y-19.257 E49.57076
G1 X21.257 Y-18.886 E49.59234
G1 X19.114 Y-16.743 E49.74373
G1 X19.706 Y-16.743 E49.77334
G1 X21.257 Y-18.294 E49.88287
G1 X21.257 Y-17.701 E49.91247
G1 X20.299 Y-16.743 E49.98014
G1 X20.891 Y-16.743 E50.00974
G1 X21.257 Y-17.109 E50.03555
G1 E48.03555 F2400.00000
G92 E0
G1 X21.039 Y19.257 F7800.000
G1 E2.00000 F2400.00000
G1 X21.257 Y19.039 E2.01538 F1200.000
G1 X21.257 Y18.446 E2.04498
G1 X20.446 Y19.257 E2.10222
G1 X19.854 Y19.257 E2.13183
G1 X21.257 Y17.854 E2.23093
G1 X21.257 Y17.261 E2.26053
G1 X19.261 Y19.257 E2.40150
G1 X18.669 Y19.257 E2.43110
G1 X21.182 Y16.743 E2.60866
G1 X20.589 Y16.743 E2.63826
G1 X18.076 Y19.257 E2.81582
G1 X17.483 Y19.257 E2.84542
G1 X19.997 Y16.743 E3.02297
G1 X19.404 Y16.743 E3.05258
G1 X16.891 Y19.257 E3.23013
G1 X16.298 Y19.257 E3.25973
G1 X18.812 Y16.743 E3.43729
G1 X18.219 Y16.743 E3.46689
G1 X15.706 Y19.257 E3.64445
G1 X15.113 Y19.257 E3.67405
G1 X17.627 Y16.743 E3.85161
G1 X17.034 Y16.743 E3.88121
G1 X14.521 Y19.257 E4.05876
G1 X13.928 Y19.257 E4.08837
G1 X16.441 Y16.743 E4.26592
G1 X15.849 Y16.743 E4.29552
G1 X13.335 Y19.257 E4.47308
G1 X12.743 Y19.257 E4.50268
G1 X15.256 Y16.743 E4.68024
G1 X14.664 Y16.743 E4.70984
G1 X12.150 Y19.257 E4.88740
G1 X11.558 Y19.257 E4.91700
G1 X14.071 Y16.743 E5.09455
G1 X13.478 Y16.743 E5.12416
G1 X10.965 Y19.257 E5.30171
G1 X10.372 Y19.257 E5.33131
G1 X12.886 Y16.743 E5.50887
G1 X12.293 Y16.743 E5.53847
G1 X9.780 Y19.257 E5.71603
G1 X9.187 Y19.257 E5.74563
G1 X11.701 Y16.743 E5.92319
G1 X11.108 Y16.743 E5.95279
G1 X8.595 Y19.257 E6.13034
G1 X8.002 Y19.257 E6.15995
G1 X10.516 Y16.743 E6.33750
G1 X9.923 Y16.743 E6.36710
G1 X7.410 Y19.257 E6.54466
G1 X6.817 Y19.257 E6.57426
G1 X9.330 Y16.743 E6.75182
G1 X8.738 Y16.743 E6.78142
G1 X6.224 Y19.257 E6.95898
G1 X5.632 Y19.257 E6.98858
G1 X8.145 Y16.743 E7.16613
G1 X7.553 Y16.743 E7.19574
G1 X5.039 Y19.257 E7.37329
G1 X4.447 Y19.257 E7.40289
G1 X6.960 Y16.743 E7.58045
G1 X6.367 Y16.743 E7.61005
G1 X3.854 Y19.257 E7.78761
G1 X3.261 Y19.257 E7.81721
G1 X5.775 Y16.743 E7.99477
G1 X5.182 Y16.743 E8.02437
G1 X2.669 Y19.257 E8.20193
G1 X2.076 Y19.257 E8.23153
G1 X4.590 Y16.743 E8.40908
G1 X3.997 Y16.743 E8.43868
G1 X1.484 Y19.257 E8.61624
G1 X0.891 Y19.257 E8.64584
G1 X3.405 Y16.743 E8.82340
G1 X2.812 Y16.743 E8.85300
G1 X0.299 Y19.257 E9.03056
G1 X-0.294 Y19.257 E9.06016
G1 X2.219 Y16.743 E9.23772
G1 X1.627 Y16.743 E9.26732
G1 X-0.887 Y19.257 E9.44487
G1 X-1.479 Y19.257 E9.47447
G1 X1.034 Y16.743 E9.65203
G1 X0.442 Y16.743 E9.68163
G1 X-2.072 Y19.257 E9.85919
G1 X-2.664 Y19.257 E9.88879
G1 X-0.151 Y16.743 E10.06635
G1 X-0.744 Y16.743 E10.09595
G1 X-3.257 Y19.257 E10.27351
G1 X-3.850 Y19.257 E10.30311
G1 X-1.336 Y16.743 E10.48066
G1 X-1.929 Y16.743 E10.51027
G1 X-4.442 Y19.257 E10.68782
G1 X-5.035 Y19.257 E10.71742
G1 X-2.521 Y16.743 E10.89498
G1 X-3.114 Y16.743 E10.92458
G1 X-5.627 Y19.257 E11.10214
G1 X-6.220 Y19.257 E11.13174
G1 X-3.706 Y16.743 E11.30930
G1 X-4.299 Y16.743 E11.33890
G1 X-6.812 Y19.257 E11.51645
G1 X-7.405 Y19.257 E11.54606
G1 X-4.892 Y16.743 E11.72361
G1 X-5.484 Y16.743 E11.75321
G1 X-7.998 Y19.257 E11.93077
G1 X-8.590 Y19.257 E11.96037
G1 X-6.077 Y16.743 E12.13793
G1 X-6.669 Y16.743 E12.16753
G1 X-9.183 Y19.257 E12.34509
G1 X-9.775 Y19.257 E12.37469
G1 X-7.262 Y16.743 E12.55224
G1 X-7.855 Y16.743 E12.58185
G1 X-10.368 Y19.257 E12.75940
G1 X-10.961 Y19.257 E12.78900
G1 X-8.447 Y16.743 E12.96656
G1 X-9.040 Y16.743 E12.99616
G1 X-11.553 Y19.257 E13.17372
G1 X-12.146 Y19.257 E13.20332
G1 X-9.632 Y16.743 E13.38088
G1 X-10.225 Y16.743 E13.41048
G1 X-12.738 Y19.257 E13.58804
G1 X-13.331 Y19.257 E13.61764
G1 X-10.817 Y16.743 E13.79519
G1 X-11.410 Y16.743 E13.82479
G1 X-13.923 Y19.257 E14.00235
G1 X-14.516 Y19.257 E14.03195
G1 X-12.003 Y16.743 E14.20951
G1 X-12.595 Y16.743 E14.23911
G1 X-15.109 Y19.257 E14.41667
G1 X-15.701 Y19.257 E14.44627
G1 X-13.188 Y16.743 E14.62383
G1 X-13.780 Y16.743 E14.65343
G1 X-16.294 Y19.257 E14.83098
G1 X-16.886 Y19.257 E14.86059
G1 X-14.373 Y16.743 E15.03814
G1 X-14.966 Y16.743 E15.06774
G1 X-17.479 Y19.257 E15.24530
G1 X-18.072 Y19.257 E15.27490
G1 X-15.558 Y16.743 E15.45246
G1 X-16.151 Y16.743 E15.48206
G1 X-18.664 Y19.257 E15.65962
G1 X-19.257 Y19.257 E15.68922
G1 X-16.743 Y16.743 E15.86677
G1 X-17.336 Y16.743 E15.89638
G1 X-19.849 Y19.257 E16.07393
G1 X-20.442 Y19.257 E16.10353
G1 X-17.928 Y16.743 E16.28109
G1 X-18.521 Y16.743 E16.31069
G1 X-21.034 Y19.257 E16.48825
G1 X-21.257 Y18.886 E16.50982
G1 X-18.743 Y16.373 E16.68738
G1 X-18.743 Y15.780 E16.71698
G1 X-21.257 Y18.294 E16.89454
G1 X-21.257 Y17.701 E16.92414
G1 X-18.743 Y15.188 E17.10170
G1 X-18.743 Y14.595 E17.13130
G1 X-21.257 Y17.109 E17.30885
G1 X-21.257 Y16.516 E17.33846
G1 X-18.743 Y14.003 E17.51601
G1 X-18.743 Y13.410 E17.54561
G1 X-21.257 Y15.923 E17.72317
G1 X-21.257 Y15.331 E17.75277
G1 X-18.743 Y12.817 E17.93033
G1 X-18.743 Y12.225 E17.95993
G1 X-21.257 Y14.738 E18.13749
G1 X-21.257 Y14.146 E18.16709
G1 X-18.743 Y11.632 E18.34464
G1 X-18.743 Y11.040 E18.37425
G1 X-21.257 Y13.553 E18.55180
G1 X-21.257 Y12.961 E18.58140
G1 X-18.743 Y10.447 E18.75896
G1 X-18.743 Y9.855 E18.78856
G1 X-21.257 Y12.368 E18.96612
G1 X-21.257 Y11.775 E18.99572
G1 X-18.743 Y9.262 E19.17328
G1 X-18.743 Y8.669 E19.20288
G1 X-21.257 Y11.183 E19.38044
G1 X-21.257 Y10.590 E19.41004
G1 X-18.743 Y8.077 E19.58759
G1 X-18.743 Y7.484 E19.61719
G1 X-21.257 Y9.998 E19.79475
G1 X-21.257 Y9.405 E19.82435
G1 X-18.743 Y6.892 E20.00191
G1 X-18.743 Y6.299 E20.03151
G1 X-21.257 Y8.812 E20.20907
G1 X-21.257 Y8.220 E20.23867
G1 X-18.743 Y5.706 E20.41623
G1 X-18.743 Y5.114 E20.44583
G1 X-21.257 Y7.627 E20.62338
G1 X-21.257 Y7.035 E20.65298
G1 X-18.743 Y4.521 E20.83054
G1 X-18.743 Y3.929 E20.86014
G1 X-21.257 Y6.442 E21.03770
G1 X-21.257 Y5.850 E21.06730
G1 X-18.743 Y3.336 E21.24486
G1 X-18.743 Y2.744 E21.27446
G1 X-21.257 Y5.257 E21.45202
G1 X-21.257 Y4.664 E21.48162
G1 X-18.743 Y2.151 E21.65917
G1 X-18.743 Y1.558 E21.68877
G1 X-21.257 Y4.072 E21.86633
G1 X-21.257 Y3.479 E21.89593
G1 X-18.743 Y0.966 E22.07349
G1 X-18.743 Y0.373 E22.10309
G1 X-21.257 Y2.887 E22.28065
G1 X-21.257 Y2.294 E22.31025
G1 X-18.743 Y-0.219 E22.48781
G1 X-18.743 Y-0.812 E22.51741
G1 X-21.257 Y1.701 E22.69496
G1 X-21.257 Y1.109 E22.72456
G1 X-18.743 Y-1.405 E22.90212
G1 X-18.743 Y-1.997 E22.93172
G1 X-21.257 Y0.516 E23.10928
G1 X-21.257 Y-0.076 E23.13888
G1 X-18.743 Y-2.590 E23.31644
G1 X-18.743 Y-3.182 E23.34604
G1 X-21.257 Y-0.669 E23.52360
G1 X-21.257 Y-1.261 E23.55320
G1 X-18.743 Y-3.775 E23.73075
G1 X-18.743 Y-4.367 E23.76036
G1 X-21.257 Y-1.854 E23.93791
G1 X-21.257 Y-2.447 E23.96751
G1 X-18.743 Y-4.960 E24.14507
G1 X-18.743 Y-5.553 E24.17467
G1 X-21.257 Y-3.039 E24.35223
G1 X-21.257 Y-3.632 E24.38183
G1 X-18.743 Y-6.145 E24.55939
G1 X-18.743 Y-6.738 E24.58899
G1 X-21.257 Y-4.224 E24.76654
G1 X-21.257 Y-4.817 E24.79615
G1 X-18.743 Y-7.330 E24.97370
G1 X-18.743 Y-7.923 E25.00330
G1 X-21.257 Y-5.410 E25.18086
G1 X-21.257 Y-6.002 E25.21046
G1 X-18.743 Y-8.516 E25.38802
G1 X-18.743 Y-9.108 E25.41762
G1 X-21.257 Y-6.595 E25.59518
G1 X-21.257 Y-7.187 E25.62478
G1 X-18.743 Y-9.701 E25.80233
G1 X-18.743 Y-10.293 E25.83194
G1 X-21.257 Y-7.780 E26.00949
G1 X-21.257 Y-8.372 E26.03909
G1 X-18.743 Y-10.886 E26.21665
G1 X-18.743 Y-11.478 E26.24625
G1 X-21.257 Y-8.965 E26.42381
G1 X-21.257 Y-9.558 E26.45341
G1 X-18.743 Y-12.071 E26.63097
G1 X-18.743 Y-12.664 E26.66057
G1 X-21.257 Y-10.150 E26.83812
G1 X-21.257 Y-10.743 E26.86773
G1 X-18.743 Y-13.256 E27.04528
G1 X-18.743 Y-13.849 E27.07488
G1 X-21.257 Y-11.335 E27.25244
G1 X-21.257 Y-11.928 E27.28204
G1 X-18.743 Y-14.441 E27.45960
G1 X-18.743 Y-15.034 E27.48920
G1 X-21.257 Y-12.521 E27.66676
G1 X-21.257 Y-13.113 E27.69636
G1 X-18.743 Y-15.627 E27.87392
G1 X-18.743 Y-16.219 E27.90352
G1 X-21.257 Y-13.706 E28.08107
G1 X-21.257 Y-14.298 E28.11067
G1 X-16.298 Y-19.257 E28.46095
G1 X-16.891 Y-19.257 E28.49056
G1 X-21.257 Y-14.891 E28.79897
G1 X-21.257 Y-15.483 E28.82857
G1 X-17.483 Y-19.257 E29.09513
G1 X-18.076 Y-19.257 E29.12473
G1 X-21.257 Y-16.076 E29.34942
G1 X-21.257 Y-16.669 E29.37902
G1 X-18.669 Y-19.257 E29.56185
G1 X-19.261 Y-19.257 E29.59145
G1 X-21.257 Y-17.261 E29.73242
G1 X-21.257 Y-17.854 E29.76202
G1 X-19.854 Y-19.257 E29.86113
G1 X-20.446 Y-19.257 E29.89073
G1 X-21.257 Y-18.446 E29.94797
G1 X-21.257 Y-19.039 E29.97757
G1 X-21.039 Y-19.257 E29.99295
G1 Z1.000 F7800.000
G1 X-18.496 Y16.496 F7800.000
G1 X21.504 Y16.496 E31.99039 F3600.000
G1 X21.504 Y19.504 E32.14059
G1 X-21.504 Y19.504 E34.28822
G1 X-21.504 Y-19.504 E36.23611
G1 X21.504 Y-19.504 E38.38375
G1 X21.504 Y-16.496 E38.53394
G1 X-18.496 Y-16.496 E40.53138
G1 X-18.496 Y16.436 E42.17589
G1 X-18.077 Y16.077 F7800.000
G1 X21.923 Y16.077 E44.17333 F3600.000
