; generated by Slic3r 1.2.9 on 2016-02-14 at 16:18:58

; external perimeters extrusion width = 0.50mm
; perimeters extrusion width = 0.85mm
; infill extrusion width = 1.02mm
; solid infill extrusion width = 0.85mm
; top infill extrusion width = 0.85mm

M107
M190 S75 ; set bed temperature
M104 S208 ; set temperature
G28 X0 Y0 ; home all axes
G29 ;
G92 X132.4 Y20; Reset actual position
G1 Z5 F5000 ; lift nozzle
M109 S208 ; wait for temperature to be reached
G21 ; set units to millimeters
G90 ; use absolute coordinates
M82 ; use absolute distances for extrusion
G92 E0
G1 E-1.00000 F1800.00000
G92 E0
G1 Z0.350 F4500.000
G1 X13.575 Y-18.100 F4500.000
G1 E1.00000 F1800.00000
G1 X57.175 Y14.600 E5.73665 F1800.000
G1 X58.254 Y15.902 E5.88363
G1 X58.625 Y17.500 E6.02618
G1 X58.625 Y42.500 E8.19896
G1 X58.230 Y44.144 E8.34594
G1 X57.133 Y45.431 E8.49291
G1 X55.000 Y46.125 E8.68784
G1 X20.000 Y46.125 E11.72973
G1 X18.936 Y45.965 E11.82325
G1 X-55.964 Y22.965 E18.63289
G1 X-57.420 Y22.105 E18.77987
G1 X-58.328 Y20.678 E18.92685
G1 X-58.520 Y19.691 E19.01431
G1 X-58.625 Y17.600 E19.19623
G1 X-58.625 Y-42.500 E24.41959
G1 X-58.230 Y-44.144 E24.56657
G1 X-57.133 Y-45.431 E24.71354
G1 X-55.000 Y-46.125 E24.90847
G1 X-25.000 Y-46.125 E27.51580
G1 X-22.825 Y-45.400 E27.71506
G1 X13.515 Y-18.145 E31.66299 F1800.000
G1 E30.66299 F1800.00000
G92 E0
G1 X-52.775 Y14.978 F4500.000
G1 E1.00000 F1800.00000
G1 X-23.751 Y16.913 E3.52815 F1800.000
G1 X-23.763 Y17.275 E3.55967
G1 X-52.675 Y17.275 E6.07248
G1 X-52.675 Y15.375 E6.23761
G1 X-52.775 Y15.375 E6.24630
G1 X-52.775 Y15.053 E6.27432
G1 X-53.400 Y14.310 F4500.000
G1 X-4.983 Y17.538 E10.49162 F1800.000
G1 X-4.995 Y17.900 E10.52314
G1 X-53.300 Y17.900 E14.72136
G1 X-53.300 Y16.000 E14.88649
G1 X-53.400 Y16.000 E14.89518
G1 X-53.400 Y14.385 E15.03557
G1 X-54.025 Y13.642 F4500.000
G1 X13.784 Y18.163 E20.94202 F1800.000
G1 X13.772 Y18.525 E20.97354
G1 X-53.925 Y18.525 E26.85716
G1 X-53.925 Y16.625 E27.02230
G1 X-54.025 Y16.625 E27.03099
G1 X-54.025 Y13.717 E27.28373
G1 X-53.400 Y-39.388 F4500.000
G1 X-53.400 Y-40.900 E27.41512 F1800.000
G1 X-46.422 Y-40.900 E28.02160
G1 X-46.394 Y-40.556 E28.05160
G1 X-53.326 Y-39.401 E28.66243
G1 X-54.025 Y-38.651 F4500.000
G1 X-54.025 Y-41.525 E28.91224 F1800.000
G1 X-38.872 Y-41.525 E30.22923
G1 X-38.843 Y-41.181 E30.25923
G1 X-53.951 Y-38.663 E31.59038
G1 X-53.350 Y-38.130 F4500.000
G1 X-53.350 Y13.061 E36.03941 F1800.000
G1 X18.488 Y17.850 E42.29682
G1 X54.650 Y17.850 E45.43967
G1 X54.650 Y19.150 E45.55265
G1 X-54.550 Y19.150 E55.04334
G1 X-54.550 Y17.250 E55.20848
G1 X-54.650 Y17.250 E55.21717
G1 X-54.650 Y-42.150 E60.37969
G1 X-31.321 Y-42.150 E62.40720
G1 X-31.293 Y-41.806 E62.43720
G1 X-53.276 Y-38.142 E64.37412
G1 X-53.849 Y-38.102 F4500.000
G1 X-30.958 Y-42.007 F4500.000
G1 X-26.940 Y-42.339 E64.72455 F1800.000
G1 E63.72455 F1800.00000
G92 E0
G1 X20.500 Y19.500 F4500.000
G1 E1.00000 F1800.00000
G1 X20.500 Y42.500 E2.99895 F1800.000
G1 E1.99895 F1800.00000
G92 E0
G1 X54.500 Y42.500 F4500.000
G1 E1.00000 F1800.00000
G1 X54.500 Y19.500 E2.99895 F1800.000
G1 X54.338 Y18.500 F4500.000
G1 X18.478 Y18.500 E9.60675 F1800.000
G1 X14.090 Y18.354 E10.41570
G1 X9.227 Y18.192 F4500.000
G1 X3.740 Y18.010 E10.89288 F1800.000
G1 X3.740 Y18.010 F4500.000
G1 X-4.677 Y17.729 E12.44476 F1800.000
G1 X-9.540 Y17.567 F4500.000
G1 X-15.027 Y17.385 E12.92194 F1800.000
G1 X-15.027 Y17.385 F4500.000
G1 X-23.445 Y17.105 E14.47382 F1800.000
G1 X-28.307 Y16.943 F4500.000
G1 X-33.795 Y16.760 E14.95100 F1800.000
G1 X-33.795 Y16.760 F4500.000
G1 X-42.212 Y16.480 E16.50288 F1800.000
G1 X-42.582 Y16.332 F4500.000
G1 X-42.888 Y16.026 E16.54147 F1800.000
G1 X-42.923 Y16.897 E16.61923
G1 X-43.859 Y15.961 E16.73727
G1 X-43.830 Y16.897 E16.82077
G1 X-44.831 Y15.896 E16.94698
G1 X-45.802 Y15.831 E17.03383
G1 X-44.737 Y16.897 E17.16821
G1 X-45.644 Y16.897 E17.24908
G1 X-46.774 Y15.767 E17.39163
G1 X-47.746 Y15.702 E17.47847
G1 X-46.551 Y16.897 E17.62919
G1 X-47.457 Y16.897 E17.71007
G1 X-48.717 Y15.637 E17.86895
G1 X-49.689 Y15.572 E17.95580
G1 X-48.364 Y16.897 E18.12286
G1 X-49.271 Y16.897 E18.20373
G1 X-50.660 Y15.507 E18.37896
G1 X-51.632 Y15.443 E18.46580
G1 X-50.178 Y16.897 E18.64920
G1 X-51.085 Y16.897 E18.73008
G1 X-52.297 Y15.685 E18.88293
G1 X-52.297 Y16.592 E18.96381
G1 X-51.992 Y16.897 E19.00229
G1 X-54.000 Y13.331 F4500.000
G1 X-54.000 Y-38.338 E28.52322 F1800.000
G1 X-53.088 Y-40.175 F4500.000
G1 X-50.433 Y-40.395 E29.01411 F1800.000
G1 X-50.433 Y-40.395 F4500.000
G1 X-48.338 Y-40.569 E29.19683 F1800.000
G1 X-46.096 Y-40.754 F4500.000
G1 X-42.883 Y-41.020 E29.79109 F1800.000
G1 X-42.883 Y-41.020 F4500.000
G1 X-40.787 Y-41.193 E29.97381 F1800.000
G1 X-38.546 Y-41.379 F4500.000
G1 X-35.332 Y-41.645 E30.56807 F1800.000
G1 X-35.332 Y-41.645 F4500.000
G1 X-33.237 Y-41.818 E30.75080 F1800.000
M104 S200 ; set temperature
M140 S70 ; wait for bed temperature to be reached
G1 E29.75080 F1800.00000
G92 E0
G1 Z0.550 F4500.000
G1 X-52.404 Y15.275 F4500.000
G1 E1.00000 F1800.00000
G1 X-33.492 Y16.536 E2.21574 F1800.000
G1 X-33.508 Y17.004 E2.24579
G1 X-52.404 Y17.004 E3.45784
G1 X-52.404 Y15.350 E3.56392
G1 X-53.311 Y14.406 F4500.000
G1 X-9.253 Y17.343 E6.39621 F1800.000
G1 X-9.269 Y17.811 E6.42625
G1 X-53.211 Y17.811 E9.24485
G1 X-53.211 Y15.911 E9.36672
G1 X-53.311 Y15.911 E9.37314
G1 X-53.311 Y14.481 E9.46488
G1 X-54.118 Y13.543 F4500.000
G1 X14.986 Y18.150 E13.90729 F1800.000
G1 X14.971 Y18.618 E13.93733
G1 X-54.018 Y18.618 E18.36248
G1 X-54.018 Y16.718 E18.48435
G1 X-54.118 Y16.718 E18.49076
G1 X-54.118 Y13.618 E18.68961
G1 X-53.311 Y-39.494 F4500.000
G1 X-53.311 Y-40.811 E18.77408 F1800.000
G1 X-48.112 Y-40.811 E19.10754
G1 X-48.075 Y-40.367 E19.13614
G1 X-53.237 Y-39.506 E19.47178
G1 X-54.118 Y-38.541 F4500.000
G1 X-54.118 Y-41.618 E19.66913 F1800.000
G1 X-38.360 Y-41.618 E20.67986
G1 X-38.324 Y-41.174 E20.70846
G1 X-54.044 Y-38.554 E21.73071
G1 X-53.250 Y-38.045 F4500.000
G1 X-53.250 Y12.967 E23.58382 F1260.000
G1 X18.492 Y17.750 E26.19574
G1 X54.750 Y17.750 E27.51289
G1 X54.750 Y42.250 E28.40289
G1 X54.250 Y42.250 E28.42106
G1 X54.250 Y19.250 E29.25657
G1 X20.750 Y19.250 E30.47352
G1 X20.750 Y42.250 E31.30903
G1 X20.250 Y42.250 E31.32719
G1 X20.250 Y19.250 E32.16271
G1 X-54.650 Y19.250 E34.88358
G1 X-54.650 Y17.350 E34.95260
G1 X-54.750 Y17.350 E34.95623
G1 X-54.750 Y-42.250 E37.12130
G1 X-30.137 Y-42.250 E38.01540
G1 X-30.108 Y-41.902 E38.02808
G1 X-53.176 Y-38.057 E38.87761
G1 X-53.749 Y-38.018 F4500.000
G1 X-29.874 Y-42.097 F4500.000
G1 X-26.386 Y-42.385 E39.10210 F1260.000
G1 X-32.122 Y-41.911 F4500.000
G1 X-34.666 Y-41.700 E39.26586 F1200.000
G1 X-34.666 Y-41.700 F4500.000
G1 X-38.027 Y-41.422 E39.70999 F1200.000
G1 X-40.816 Y-41.191 F4500.000
G1 X-43.361 Y-40.980 E39.87375 F1200.000
G1 X-43.361 Y-40.980 F4500.000
G1 X-47.692 Y-40.622 E40.44607 F1200.000
G1 X-54.000 Y-38.240 F4500.000
G1 X-54.000 Y13.234 E47.22512 F1200.000
G1 X-52.000 Y16.154 F4500.000
G1 X-45.993 Y16.354 E48.01663 F1200.000
G1 X-39.330 Y16.576 E48.44427 F1200.000
G1 X-33.097 Y16.783 F4500.000
G1 X-21.754 Y17.161 E49.93887 F1200.000
G1 X-15.091 Y17.383 E50.36650 F1200.000
G1 X-8.857 Y17.590 F4500.000
G1 X2.485 Y17.968 E51.86110 F1200.000
G1 X9.148 Y18.190 E52.28874 F1200.000
G1 X15.294 Y18.394 F4500.000
G1 X18.481 Y18.500 E52.70866 F1200.000
G1 X54.434 Y18.500 E57.44356
G1 E56.44356 F1800.00000
G92 E0
G1 Z0.750 F4500.000
G1 X-52.404 Y15.275 F4500.000
G1 E1.00000 F1800.00000
G1 X-33.492 Y16.536 E2.21574 F1800.000
G1 X-33.508 Y17.004 E2.24579
G1 X-52.404 Y17.004 E3.45784
G1 X-52.404 Y15.350 E3.56392
G1 X-53.311 Y14.406 F4500.000
G1 X-9.253 Y17.343 E6.39621 F1800.000
G1 X-9.269 Y17.811 E6.42625
G1 X-53.211 Y17.811 E9.24485
G1 X-53.211 Y15.911 E9.36672
G1 X-53.311 Y15.911 E9.37314
G1 X-53.311 Y14.481 E9.46488
G1 X-54.118 Y13.543 F4500.000
G1 X14.986 Y18.150 E13.90729 F1800.000
G1 X14.971 Y18.618 E13.93733
G1 X-54.018 Y18.618 E18.36248
G1 X-54.018 Y16.718 E18.48435
G1 X-54.118 Y16.718 E18.49076
G1 X-54.118 Y13.618 E18.68961
G1 X-53.311 Y-39.494 F4500.000
G1 X-53.311 Y-40.811 E18.77408 F1800.000
G1 X-48.112 Y-40.811 E19.10754
G1 X-48.075 Y-40.367 E19.13614
G1 X-53.237 Y-39.506 E19.47178
G1 X-54.118 Y-38.541 F4500.000
G1 X-54.118 Y-41.618 E19.66913 F1800.000
G1 X-38.360 Y-41.618 E20.67986
G1 X-38.324 Y-41.174 E20.70846
G1 X-54.044 Y-38.554 E21.73071
G1 X-53.250 Y-38.045 F4500.000
G1 X-53.250 Y12.967 E23.58382 F1260.000
G1 X18.492 Y17.750 E26.19574
G1 X54.750 Y17.750 E27.51289
G1 X54.750 Y42.250 E28.40289
G1 X54.250 Y42.250 E28.42106
G1 X54.250 Y19.250 E29.25657
G1 X20.750 Y19.250 E30.47352
G1 X20.750 Y42.250 E31.30903
G1 X20.250 Y42.250 E31.32719
G1 X20.250 Y19.250 E32.16271
G1 X-54.650 Y19.250 E34.88358
G1 X-54.650 Y17.350 E34.95260
G1 X-54.750 Y17.350 E34.95623
G1 X-54.750 Y-42.250 E37.12130
G1 X-30.137 Y-42.250 E38.01540
G1 X-30.108 Y-41.902 E38.02808
G1 X-53.176 Y-38.057 E38.87761
G1 X-53.749 Y-38.018 F4500.000
G1 X-29.874 Y-42.097 F4500.000
G1 X-26.386 Y-42.385 E39.10210 F1260.000
G1 X-32.122 Y-41.911 F4500.000
G1 X-34.666 Y-41.700 E39.26586 F1200.000
G1 X-34.666 Y-41.700 F4500.000
G1 X-38.027 Y-41.422 E39.70999 F1200.000
G1 X-40.816 Y-41.191 F4500.000
G1 X-43.361 Y-40.980 E39.87375 F1200.000
G1 X-43.361 Y-40.980 F4500.000
G1 X-47.692 Y-40.622 E40.44607 F1200.000
G1 X-54.000 Y-38.240 F4500.000
G1 X-54.000 Y13.234 E47.22512 F1200.000
G1 X-52.000 Y16.154 F4500.000
G1 X-45.993 Y16.354 E48.01663 F1200.000
G1 X-39.330 Y16.576 E48.44427 F1200.000
G1 X-33.097 Y16.783 F4500.000
G1 X-21.754 Y17.161 E49.93886 F1200.000
G1 X-15.091 Y17.383 E50.36650 F1200.000
G1 X-8.857 Y17.590 F4500.000
G1 X2.485 Y17.968 E51.86110 F1200.000
G1 X9.148 Y18.190 E52.28874 F1200.000
G1 X15.294 Y18.394 F4500.000
G1 X18.481 Y18.500 E52.70866 F1200.000
G1 X54.434 Y18.500 E57.44356
G1 E56.44356 F1800.00000
G92 E0
G1 Z0.950 F4500.000
G1 X-52.404 Y15.275 F4500.000
G1 E1.00000 F1800.00000
G1 X-33.492 Y16.536 E2.21574 F1800.000
G1 X-33.508 Y17.004 E2.24579
G1 X-52.404 Y17.004 E3.45784
G1 X-52.404 Y15.350 E3.56392
G1 X-53.311 Y14.406 F4500.000
G1 X-9.253 Y17.343 E6.39621 F1800.000
G1 X-9.269 Y17.811 E6.42625
G1 X-53.211 Y17.811 E9.24485
G1 X-53.211 Y15.911 E9.36672
G1 X-53.311 Y15.911 E9.37314
G1 X-53.311 Y14.481 E9.46488
G1 X-54.118 Y13.543 F4500.000
G1 X14.986 Y18.150 E13.90729 F1800.000
G1 X14.971 Y18.618 E13.93733
G1 X-54.018 Y18.618 E18.36248
G1 X-54.018 Y16.718 E18.48435
G1 X-54.118 Y16.718 E18.49076
G1 X-54.118 Y13.618 E18.68961
G1 X-53.311 Y-39.494 F4500.000
G1 X-53.311 Y-40.811 E18.77408 F1800.000
G1 X-48.112 Y-40.811 E19.10754
G1 X-48.075 Y-40.367 E19.13614
G1 X-53.237 Y-39.506 E19.47178
G1 X-54.118 Y-38.541 F4500.000
G1 X-54.118 Y-41.618 E19.66913 F1800.000
G1 X-38.360 Y-41.618 E20.67986
G1 X-38.324 Y-41.174 E20.70846
G1 X-54.044 Y-38.554 E21.73071
G1 X-53.250 Y-38.045 F4500.000
G1 X-53.250 Y12.967 E23.58382 F1260.000
G1 X18.492 Y17.750 E26.19574
G1 X54.750 Y17.750 E27.51289
G1 X54.750 Y42.250 E28.40289
G1 X54.250 Y42.250 E28.42106
G1 X54.250 Y19.250 E29.25657
G1 X20.750 Y19.250 E30.47351
G1 X20.750 Y42.250 E31.30903
G1 X20.250 Y42.250 E31.32719
G1 X20.250 Y19.250 E32.16271
G1 X-54.650 Y19.250 E34.88358
G1 X-54.650 Y17.350 E34.95260
G1 X-54.750 Y17.350 E34.95623
G1 X-54.750 Y-42.250 E37.12130
G1 X-30.137 Y-42.250 E38.01540
G1 X-30.108 Y-41.902 E38.02808
G1 X-53.176 Y-38.057 E38.87761
G1 X-53.749 Y-38.018 F4500.000
G1 X-29.874 Y-42.097 F4500.000
G1 X-26.386 Y-42.385 E39.10210 F1260.000
G1 X-32.122 Y-41.911 F4500.000
G1 X-34.666 Y-41.700 E39.26586 F1200.000
G1 X-34.666 Y-41.700 F4500.000
G1 X-38.027 Y-41.422 E39.70999 F1200.000
G1 X-40.816 Y-41.191 F4500.000
G1 X-43.361 Y-40.980 E39.87374 F1200.000
G1 X-43.361 Y-40.980 F4500.000
G1 X-47.692 Y-40.622 E40.44606 F1200.000
G1 X-54.000 Y-38.240 F4500.000
G1 X-54.000 Y13.234 E47.22512 F1200.000
G1 X-52.000 Y16.154 F4500.000
G1 X-45.993 Y16.354 E48.01663 F1200.000
G1 X-39.330 Y16.576 E48.44427 F1200.000
G1 X-33.097 Y16.783 F4500.000
G1 X-21.754 Y17.161 E49.93886 F1200.000
G1 X-15.091 Y17.383 E50.36650 F1200.000
G1 X-8.857 Y17.590 F4500.000
G1 X2.485 Y17.968 E51.86110 F1200.000
G1 X9.148 Y18.190 E52.28874 F1200.000
G1 X15.294 Y18.394 F4500.000
G1 X18.481 Y18.500 E52.70866 F1200.000
G1 X54.434 Y18.500 E57.44355
M106 S145.35
G1 E56.44355 F1800.00000
G92 E0
G1 Z1.150 F4500.000
G1 X-52.404 Y15.275 F4500.000
G1 E1.00000 F1800.00000
G1 X-33.492 Y16.536 E2.21574 F1800.000
G1 X-33.508 Y17.004 E2.24579
G1 X-52.404 Y17.004 E3.45784
G1 X-52.404 Y15.350 E3.56392
G1 X-53.311 Y14.406 F4500.000
G1 X-9.253 Y17.343 E6.39621 F1800.000
G1 X-9.269 Y17.811 E6.42625
G1 X-53.211 Y17.811 E9.24485
G1 X-53.211 Y15.911 E9.36672
G1 X-53.311 Y15.911 E9.37314
G1 X-53.311 Y14.481 E9.46488
G1 X-54.118 Y13.543 F4500.000
G1 X14.986 Y18.150 E13.90729 F1800.000
G1 X14.971 Y18.618 E13.93733
G1 X-54.018 Y18.618 E18.36248
G1 X-54.018 Y16.718 E18.48435
G1 X-54.118 Y16.718 E18.49076
G1 X-54.118 Y13.618 E18.68961
G1 X-53.311 Y-39.494 F4500.000
G1 X-53.311 Y-40.811 E18.77408 F1800.000
G1 X-48.112 Y-40.811 E19.10754
G1 X-48.075 Y-40.367 E19.13614
G1 X-53.237 Y-39.506 E19.47178
G1 X-54.118 Y-38.541 F4500.000
G1 X-54.118 Y-41.618 E19.66913 F1800.000
G1 X-38.360 Y-41.618 E20.67986
G1 X-38.324 Y-41.174 E20.70846
G1 X-54.044 Y-38.554 E21.73071
G1 X-53.250 Y-38.045 F4500.000
G1 X-53.250 Y12.967 E23.58382 F1260.000
G1 X18.492 Y17.750 E26.19574
G1 X54.750 Y17.750 E27.51289
G1 X54.750 Y42.250 E28.40289
G1 X54.250 Y42.250 E28.42106
G1 X54.250 Y19.250 E29.25657
G1 X20.750 Y19.250 E30.47352
G1 X20.750 Y42.250 E31.30903
G1 X20.250 Y42.250 E31.32719
G1 X20.250 Y19.250 E32.16271
G1 X-54.650 Y19.250 E34.88358
G1 X-54.650 Y17.350 E34.95260
G1 X-54.750 Y17.350 E34.95623
G1 X-54.750 Y-42.250 E37.12130
G1 X-30.137 Y-42.250 E38.01540
G1 X-30.108 Y-41.902 E38.02809
G1 X-53.176 Y-38.057 E38.87761
G1 X-53.749 Y-38.018 F4500.000
G1 X-29.874 Y-42.097 F4500.000
G1 X-26.386 Y-42.385 E39.10210 F1260.000
G1 X-32.122 Y-41.911 F4500.000
G1 X-34.666 Y-41.700 E39.26586 F1200.000
G1 X-34.666 Y-41.700 F4500.000
G1 X-38.027 Y-41.422 E39.70999 F1200.000
G1 X-40.816 Y-41.191 F4500.000
G1 X-43.361 Y-40.980 E39.87375 F1200.000
G1 X-43.361 Y-40.980 F4500.000
G1 X-47.692 Y-40.622 E40.44607 F1200.000
G1 X-54.000 Y-38.240 F4500.000
G1 X-54.000 Y13.234 E47.22512 F1200.000
G1 X-52.000 Y16.154 F4500.000
G1 X-45.993 Y16.354 E48.01663 F1200.000
G1 X-39.330 Y16.576 E48.44427 F1200.000
G1 X-33.097 Y16.783 F4500.000
G1 X-21.754 Y17.161 E49.93887 F1200.000
G1 X-15.091 Y17.383 E50.36650 F1200.000
G1 X-8.857 Y17.590 F4500.000
G1 X2.485 Y17.968 E51.86110 F1200.000
G1 X9.148 Y18.190 E52.28874 F1200.000
G1 X15.294 Y18.394 F4500.000
G1 X18.481 Y18.500 E52.70866 F1200.000
G1 X54.434 Y18.500 E57.44356
G1 E56.44356 F1800.00000
G92 E0
G1 Z1.350 F4500.000
G1 X-52.404 Y15.275 F4500.000
G1 E1.00000 F1800.00000
G1 X-33.492 Y16.536 E2.21574 F1800.000
G1 X-33.508 Y17.004 E2.24579
G1 X-52.404 Y17.004 E3.45784
G1 X-52.404 Y15.350 E3.56392
G1 X-53.311 Y14.406 F4500.000
G1 X-9.253 Y17.343 E6.39621 F1800.000
G1 X-9.269 Y17.811 E6.42625
G1 X-53.211 Y17.811 E9.24485
G1 X-53.211 Y15.911 E9.36672
G1 X-53.311 Y15.911 E9.37314
G1 X-53.311 Y14.481 E9.46488
G1 X-54.118 Y13.543 F4500.000
G1 X14.986 Y18.150 E13.90729 F1800.000
G1 X14.971 Y18.618 E13.93733
G1 X-54.018 Y18.618 E18.36248
G1 X-54.018 Y16.718 E18.48435
G1 X-54.118 Y16.718 E18.49076
G1 X-54.118 Y13.618 E18.68961
G1 X-53.311 Y-39.494 F4500.000
G1 X-53.311 Y-40.811 E18.77408 F1800.000
G1 X-48.112 Y-40.811 E19.10754
G1 X-48.075 Y-40.367 E19.13614
G1 X-53.237 Y-39.506 E19.47178
G1 X-54.118 Y-38.541 F4500.000
G1 X-54.118 Y-41.618 E19.66913 F1800.000
G1 X-38.360 Y-41.618 E20.67986
G1 X-38.324 Y-41.174 E20.70846
G1 X-54.044 Y-38.554 E21.73071
G1 X-53.250 Y-38.045 F4500.000
G1 X-53.250 Y12.967 E23.58382 F1260.000
G1 X18.492 Y17.750 E26.19574
G1 X54.750 Y17.750 E27.51289
G1 X54.750 Y42.250 E28.40289
G1 X54.250 Y42.250 E28.42106
G1 X54.250 Y19.250 E29.25657
G1 X20.750 Y19.250 E30.47352
G1 X20.750 Y42.250 E31.30903
G1 X20.250 Y42.250 E31.32719
G1 X20.250 Y19.250 E32.16271
G1 X-54.650 Y19.250 E34.88358
G1 X-54.650 Y17.350 E34.95260
