; generated by Slic3r 1.1.7 on 2015-04-07 at 18:11:13

; perimeters extrusion width = 0.50mm
; infill extrusion width = 0.70mm
; solid infill extrusion width = 0.70mm
; top infill extrusion width = 0.70mm

G21 ; set units to millimeters
M107
M190 S75 ; wait for bed temperature to be reached
M104 S215 ; set temperature
G28 X0 Y0 ; home all axes
G29 ;
G1 Z5 F5000 ; lift nozzle
M109 S215 ; wait for temperature to be reached
G90 ; use absolute coordinates
G92 E0
M82 ; use absolute distances for extrusion
G1 F1800.000 E-1.00000
G92 E0
G1 Z0.350 F7800.000
G1 X19.929 Y12.672 F7800.000
G1 E1.00000 F1800.000
G1 X20.902 Y11.142 E1.16380 F1080.000
G1 X22.612 Y9.903 E1.35472
G1 X25.000 Y9.372 E1.57577
G1 X125.000 Y9.372 E10.61333
G1 X127.075 Y9.768 E10.80425
G1 X128.858 Y10.902 E10.99517 F1080.000
G1 X130.097 Y12.612 E11.18609
G1 X130.628 Y15.000 E11.40714
G1 X130.628 Y135.000 E22.25222
G1 X130.232 Y137.075 E22.44313
G1 X129.098 Y138.858 E22.63405
G1 X127.388 Y140.097 E22.82497
G1 X125.000 Y140.628 E23.04603
G1 X25.000 Y140.628 E32.08359
G1 X22.925 Y140.232 E32.27450
G1 X21.142 Y139.098 E32.46542
G1 X19.903 Y137.388 E32.65634
G1 X19.372 Y135.000 E32.87740
G1 X19.372 Y15.000 E43.72247
G1 X19.768 Y12.925 E43.91339
G1 X19.889 Y12.735 E43.93373
G1 X20.445 Y13.027 F7800.000
G1 X21.550 Y11.421 E44.10986 F1080.000
G1 X23.224 Y10.357 E44.28918
G1 X25.000 Y10.029 E44.45239
G1 X125.000 Y10.029 E53.48995
G1 X126.944 Y10.425 E53.66927
G1 X128.579 Y11.550 E53.84860 F1080.000
G1 X129.643 Y13.224 E54.02792
G1 X129.971 Y15.000 E54.19113
G1 X129.971 Y135.000 E65.03620
G1 X129.575 Y136.944 E65.21552
G1 X128.450 Y138.579 E65.39484
G1 X126.776 Y139.643 E65.57417
G1 X125.000 Y139.971 E65.73738
G1 X25.000 Y139.971 E74.77494
G1 X23.056 Y139.575 E74.95426
G1 X21.421 Y138.450 E75.13358
G1 X20.357 Y136.776 E75.31290
G1 X20.029 Y135.000 E75.47611
G1 X20.029 Y15.000 E86.32119
G1 X20.417 Y13.095 E86.49692
G1 X21.081 Y13.196 F7800.000
G1 X22.195 Y11.722 E86.66384 F1080.000
G1 X23.823 Y10.850 E86.83076
G1 X25.000 Y10.686 E86.93819
G1 X125.000 Y10.686 E95.97575
G1 X126.804 Y11.081 E96.14267
G1 X128.278 Y12.195 E96.30960 F1080.000
G1 X129.150 Y13.823 E96.47652
G1 X129.314 Y15.000 E96.58395
G1 X129.314 Y135.000 E107.42902
G1 X128.919 Y136.804 E107.59594
G1 X127.805 Y138.278 E107.76286
G1 X126.177 Y139.150 E107.92979
G1 X125.000 Y139.314 E108.03722
G1 X25.000 Y139.314 E117.07478
G1 X23.196 Y138.919 E117.24170
G1 X21.722 Y137.805 E117.40862
G1 X20.850 Y136.177 E117.57554
G1 X20.686 Y135.000 E117.68297
G1 X20.686 Y15.000 E128.52804
G1 X21.065 Y13.269 E128.68819
G1 X21.736 Y13.352 F7800.000
G1 X22.836 Y12.052 E128.84209 F1080.000
G1 X25.000 Y11.343 E129.04790
G1 X125.000 Y11.343 E138.08546
G1 X126.652 Y11.737 E138.23898
G1 X127.948 Y12.836 E138.39250 F1080.000
G1 X128.657 Y15.000 E138.59831
G1 X128.657 Y135.000 E149.44338
G1 X128.263 Y136.652 E149.59691
G1 X127.164 Y137.948 E149.75043
G1 X125.000 Y138.657 E149.95624
G1 X25.000 Y138.657 E158.99380
G1 X23.348 Y138.263 E159.14732
G1 X22.052 Y137.164 E159.30085
G1 X21.343 Y135.000 E159.50665
G1 X21.343 Y15.000 E170.35173
G1 X21.719 Y13.425 E170.49805
G1 F1800.000 E169.49805
G92 E0
G1 X117.321 Y117.321 F7800.000
G1 E1.00000 F1800.000
G1 X40.254 Y117.321 E7.96500 F540.000
G1 X114.118 Y22.353 E18.83822
G1 X117.321 Y23.452 E19.14428
G1 X117.321 Y117.246 E27.62098
G1 X116.664 Y116.664 F7800.000
G1 X41.597 Y116.664 E34.40518 F540.000
G1 X114.349 Y23.127 E45.11457
G1 X116.664 Y23.921 E45.33582
G1 X116.664 Y116.589 E53.71072
G1 X116.007 Y116.007 F7800.000
G1 X42.941 Y116.007 E60.31412 F540.000
G1 X114.579 Y23.901 E70.85969
G1 X116.007 Y24.391 E70.99612
G1 X116.007 Y115.932 E79.26924
G1 X115.350 Y115.350 F7800.000
G1 X44.284 Y115.350 E85.69183 F378.000
G1 X114.810 Y24.675 E96.07358
G1 X115.350 Y24.860 E96.12519
G1 X115.350 Y115.275 E104.29652
G1 X115.350 Y115.850 F7800.000
G1 X35.882 Y117.647 F7800.000
G1 X32.679 Y116.548 E104.60258 F540.000
G1 X32.679 Y22.679 E113.08605
G1 X109.746 Y22.679 E120.05105
G1 X35.928 Y117.588 E130.91749
G1 X35.651 Y116.873 F7800.000
G1 X33.336 Y116.079 E131.13874 F540.000
G1 X33.336 Y23.336 E139.52042
G1 X108.403 Y23.336 E146.30462
G1 X35.697 Y116.814 E157.00724
G1 X35.421 Y116.099 F7800.000
G1 X33.993 Y115.609 E157.14367 F540.000
G1 X33.993 Y23.993 E165.42356
G1 X107.059 Y23.993 E172.02696
G1 X35.467 Y116.040 E182.56575
G1 X35.190 Y115.325 F7800.000
G1 X34.650 Y115.140 E182.61737 F378.000
G1 X34.650 Y24.650 E190.79547
G1 X105.716 Y24.650 E197.21807
G1 X35.236 Y115.266 E207.59303
G1 X34.977 Y115.778 F7800.000
G1 X27.321 Y132.679 F7800.000
G1 X27.321 Y17.321 E218.01853 F540.000
G1 X122.679 Y17.321 E226.63653
G1 X122.679 Y132.679 E237.06203
G1 X27.396 Y132.679 E245.67324
G1 X26.664 Y133.336 F7800.000
G1 X26.664 Y16.664 E256.21752 F540.000
G1 X123.336 Y16.664 E264.95428
G1 X123.336 Y133.336 E275.49855
G1 X26.739 Y133.336 E284.22853
G1 X26.007 Y133.993 F7800.000
G1 X26.007 Y16.007 E294.89157 F540.000
G1 X123.993 Y16.007 E303.74710
G1 X123.993 Y133.993 E314.41014
G1 X26.082 Y133.993 E323.25889
G1 X25.350 Y134.650 F7800.000
G1 X25.350 Y15.350 E334.04070 F378.000
G1 X124.650 Y15.350 E343.01499
G1 X124.650 Y134.650 E353.79680
G1 X25.425 Y134.650 E362.76432
G1 X25.600 Y134.217 F7800.000
G1 X27.818 Y132.222 F7800.000
G1 X27.778 Y132.182 E362.76943 F1080.000
G1 X27.778 Y131.250 E362.85368
G1 X28.750 Y132.222 E362.97793
G1 X29.682 Y132.222 E363.06218
G1 X27.778 Y130.318 E363.30558
G1 X27.778 Y129.386 E363.38982
G1 X30.614 Y132.222 E363.75236
G1 X31.546 Y132.222 E363.83661
G1 X27.778 Y128.454 E364.31830
G1 X27.778 Y127.521 E364.40254
G1 X32.479 Y132.222 E365.00337
G1 X33.411 Y132.222 E365.08762
G1 X27.778 Y126.589 E365.80759
G1 X27.778 Y125.657 E365.89183
G1 X34.343 Y132.222 E366.73095
G1 X35.275 Y132.222 E366.81519
G1 X27.778 Y124.725 E367.77345
G1 X27.778 Y123.793 E367.85770
G1 X36.207 Y132.222 E368.93510
G1 X37.139 Y132.222 E369.01934
G1 X27.778 Y122.861 E370.21589
G1 X27.778 Y121.928 E370.30013
G1 X38.072 Y132.222 E371.61582
G1 X39.004 Y132.222 E371.70007
G1 X27.778 Y120.996 E373.13489
G1 X27.778 Y120.064 E373.21914
G1 X39.936 Y132.222 E374.77311
G1 X40.868 Y132.222 E374.85736
G1 X27.778 Y119.132 E376.53047
G1 X27.778 Y118.200 E376.61472
G1 X41.800 Y132.222 E378.40698
G1 X42.733 Y132.222 E378.49123
G1 X27.778 Y117.267 E380.40263
G1 X27.778 Y116.335 E380.48687
G1 X43.665 Y132.222 E382.51742
G1 X44.597 Y132.222 E382.60166
G1 X27.778 Y115.403 E384.75135
G1 X27.778 Y114.471 E384.83560
G1 X45.529 Y132.222 E387.10443
G1 X46.461 Y132.222 E387.18867
G1 X27.778 Y113.539 E389.57664
G1 X27.778 Y112.606 E389.66089
G1 X47.393 Y132.222 E392.16801
G1 X53.919 Y132.222 F7800.000
G1 X37.722 Y116.025 E394.23819 F1080.000
G1 X37.314 Y116.549 E394.29822
G1 X52.987 Y132.222 E396.30139
G1 X52.054 Y132.222 E396.38563
G1 X36.906 Y117.074 E398.32178
G1 X36.498 Y117.598 E398.38181
G1 X51.122 Y132.222 E400.25094
G1 X50.190 Y132.222 E400.33519
G1 X36.090 Y118.123 E402.13729
G1 X34.790 Y117.755 E402.25939
G1 X49.258 Y132.222 E404.10850
G1 X48.326 Y132.222 E404.19275
G1 X33.371 Y117.268 E406.10409
G1 X32.222 Y116.119 F7800.000
G1 X27.778 Y111.674 E406.67218 F1080.000
G1 X27.778 Y110.742 E406.75643
G1 X32.222 Y115.187 E407.32452
G1 X32.222 Y114.255 E407.40877
G1 X27.778 Y109.810 E407.97686
G1 X27.778 Y108.878 E408.06111
G1 X32.222 Y113.323 E408.62920
G1 X32.222 Y112.390 E408.71345
G1 X27.778 Y107.946 E409.28154
G1 X27.778 Y107.013 E409.36578
G1 X32.222 Y111.458 E409.93388
G1 X32.222 Y110.526 E410.01812
G1 X27.778 Y106.081 E410.58621
G1 X27.778 Y105.149 E410.67046
G1 X32.222 Y109.594 E411.23855
G1 X32.222 Y108.662 E411.32280
G1 X27.778 Y104.217 E411.89089
G1 X27.778 Y103.285 E411.97514
G1 X32.222 Y107.729 E412.54323
G1 X32.222 Y106.797 E412.62748
G1 X27.778 Y102.352 E413.19557
G1 X27.778 Y101.420 E413.27982
G1 X32.222 Y105.865 E413.84791
G1 X32.222 Y104.933 E413.93215
G1 X27.778 Y100.488 E414.50025
G1 X27.778 Y99.556 E414.58449
G1 X32.222 Y104.001 E415.15258
G1 X32.222 Y103.069 E415.23683
G1 X27.778 Y98.624 E415.80492
G1 X27.778 Y97.692 E415.88917
G1 X32.222 Y102.136 E416.45726
G1 X32.222 Y101.204 E416.54151
G1 X27.778 Y96.759 E417.10960
G1 X27.778 Y95.827 E417.19385
G1 X32.222 Y100.272 E417.76194
G1 X32.222 Y99.340 E417.84618
G1 X27.778 Y94.895 E418.41428
G1 X27.778 Y93.963 E418.49852
G1 X32.222 Y98.408 E419.06661
G1 X32.222 Y97.475 E419.15086
G1 X27.778 Y93.031 E419.71895
G1 X27.778 Y92.098 E419.80320
G1 X32.222 Y96.543 E420.37129
G1 X32.222 Y95.611 E420.45554
G1 X27.778 Y91.166 E421.02363
G1 X27.778 Y90.234 E421.10788
G1 X32.222 Y94.679 E421.67597
G1 X32.222 Y93.747 E421.76021
G1 X27.778 Y89.302 E422.32831
G1 X27.778 Y88.370 E422.41255
G1 X32.222 Y92.814 E422.98064
G1 X32.222 Y91.882 E423.06489
G1 X27.778 Y87.437 E423.63298
G1 X27.778 Y86.505 E423.71723
G1 X32.222 Y90.950 E424.28532
G1 X32.222 Y90.018 E424.36957
G1 X27.778 Y85.573 E424.93766
G1 X27.778 Y84.641 E425.02191
G1 X32.222 Y89.086 E425.59000
G1 X32.222 Y88.154 E425.67424
G1 X27.778 Y83.709 E426.24234
G1 X27.778 Y82.777 E426.32658
G1 X32.222 Y87.221 E426.89467
G1 X32.222 Y86.289 E426.97892
G1 X27.778 Y81.844 E427.54701
G1 X27.778 Y80.912 E427.63126
G1 X32.222 Y85.357 E428.19935
G1 X32.222 Y84.425 E428.28360
G1 X27.778 Y79.980 E428.85169
G1 X27.778 Y79.048 E428.93594
G1 X32.222 Y83.493 E429.50403
G1 X32.222 Y82.560 E429.58828
G1 X27.778 Y78.116 E430.15637
G1 X27.778 Y77.183 E430.24061
G1 X32.222 Y81.628 E430.80871
G1 X32.222 Y80.696 E430.89295
G1 X27.778 Y76.251 E431.46104
G1 X27.778 Y75.319 E431.54529
G1 X32.222 Y79.764 E432.11338
G1 X32.222 Y78.832 E432.19763
G1 X27.778 Y74.387 E432.76572
G1 X27.778 Y73.455 E432.84997
G1 X32.222 Y77.899 E433.41806
G1 X32.222 Y76.967 E433.50231
G1 X27.778 Y72.523 E434.07040
G1 X27.778 Y71.590 E434.15464
G1 X32.222 Y76.035 E434.72274
G1 X32.222 Y75.103 E434.80698
G1 X27.778 Y70.658 E435.37507
G1 X27.778 Y69.726 E435.45932
G1 X32.222 Y74.171 E436.02741
G1 X32.222 Y73.239 E436.11166
G1 X27.778 Y68.794 E436.67975
G1 X27.778 Y67.862 E436.76400
G1 X32.222 Y72.306 E437.33209
G1 X32.222 Y71.374 E437.41634
G1 X27.778 Y66.929 E437.98443
G1 X27.778 Y65.997 E438.06867
G1 X32.222 Y70.442 E438.63677
G1 X32.222 Y69.510 E438.72101
G1 X27.778 Y65.065 E439.28910
G1 X27.778 Y64.133 E439.37335
G1 X32.222 Y68.578 E439.94144
G1 X32.222 Y67.645 E440.02569
G1 X27.778 Y63.201 E440.59378
G1 X27.778 Y62.268 E440.67803
G1 X32.222 Y66.713 E441.24612
G1 X32.222 Y65.781 E441.33037
G1 X27.778 Y61.336 E441.89846
G1 X27.778 Y60.404 E441.98271
G1 X32.222 Y64.849 E442.55080
G1 X32.222 Y63.917 E442.63504
G1 X27.778 Y59.472 E443.20314
G1 X27.778 Y58.540 E443.28738
G1 X32.222 Y62.985 E443.85547
G1 X32.222 Y62.052 E443.93972
G1 X27.778 Y57.608 E444.50781
G1 X27.778 Y56.675 E444.59206
G1 X32.222 Y61.120 E445.16015
G1 X32.222 Y60.188 E445.24440
G1 X27.778 Y55.743 E445.81249
G1 X27.778 Y54.811 E445.89674
G1 X32.222 Y59.256 E446.46483
G1 X32.222 Y58.324 E446.54908
G1 X27.778 Y53.879 E447.11717
G1 X27.778 Y52.947 E447.20141
G1 X32.222 Y57.391 E447.76951
G1 X32.222 Y56.459 E447.85375
G1 X27.778 Y52.014 E448.42184
G1 X27.778 Y51.082 E448.50609
G1 X32.222 Y55.527 E449.07418
G1 X32.222 Y54.595 E449.15843
G1 X27.778 Y50.150 E449.72652
G1 X27.778 Y49.218 E449.81077
G1 X32.222 Y53.663 E450.37886
G1 X32.222 Y52.730 E450.46311
G1 X27.778 Y48.286 E451.03120
G1 X27.778 Y47.353 E451.11544
G1 X32.222 Y51.798 E451.68354
G1 X32.222 Y50.866 E451.76778
G1 X27.778 Y46.421 E452.33587
G1 X27.778 Y45.489 E452.42012
G1 X32.222 Y49.934 E452.98821
G1 X32.222 Y49.002 E453.07246
G1 X27.778 Y44.557 E453.64055
G1 X27.778 Y43.625 E453.72480
G1 X32.222 Y48.070 E454.29289
G1 X32.222 Y47.137 E454.37714
G1 X27.778 Y42.693 E454.94523
G1 X27.778 Y41.760 E455.02948
G1 X32.222 Y46.205 E455.59757
G1 X32.222 Y45.273 E455.68181
G1 X27.778 Y40.828 E456.24991
G1 X27.778 Y39.896 E456.33415
G1 X32.222 Y44.341 E456.90224
G1 X32.222 Y43.409 E456.98649
G1 X27.778 Y38.964 E457.55458
G1 X27.778 Y38.032 E457.63883
G1 X32.222 Y42.476 E458.20692
G1 X32.222 Y41.544 E458.29117
G1 X27.778 Y37.099 E458.85926
G1 X27.778 Y36.167 E458.94351
G1 X32.222 Y40.612 E459.51160
G1 X32.222 Y39.680 E459.59585
G1 X27.778 Y35.235 E460.16394
G1 X27.778 Y34.303 E460.24818
G1 X32.222 Y38.748 E460.81628
G1 X32.222 Y37.816 E460.90052
G1 X27.778 Y33.371 E461.46861
G1 X27.778 Y32.439 E461.55286
G1 X32.222 Y36.883 E462.12095
G1 X32.222 Y35.951 E462.20520
G1 X27.778 Y31.506 E462.77329
G1 X27.778 Y30.574 E462.85754
G1 X32.222 Y35.019 E463.42563
G1 X32.222 Y34.087 E463.50988
G1 X27.778 Y29.642 E464.07797
G1 X27.778 Y28.710 E464.16221
G1 X32.222 Y33.155 E464.73031
G1 X32.222 Y32.222 E464.81455
G1 X27.778 Y27.778 E465.38265
G1 X27.778 Y26.845 E465.46689
G1 X32.222 Y31.290 E466.03498
G1 X32.222 Y30.358 E466.11923
G1 X27.778 Y25.913 E466.68732
G1 X27.778 Y24.981 E466.77157
G1 X32.222 Y29.426 E467.33966
G1 X32.222 Y28.494 E467.42391
G1 X27.778 Y24.049 E467.99200
G1 X27.778 Y23.117 E468.07625
G1 X32.222 Y27.561 E468.64434
G1 X32.222 Y26.629 E468.72858
G1 X27.778 Y22.184 E469.29668
G1 X27.778 Y21.252 E469.38092
G1 X32.222 Y25.697 E469.94901
G1 X32.222 Y24.765 E470.03326
G1 X27.778 Y20.320 E470.60135
G1 X27.778 Y19.388 E470.68560
G1 X32.222 Y23.833 E471.25369
G1 X32.222 Y22.901 E471.33794
G1 X27.778 Y18.456 E471.90603
G1 X28.032 Y17.778 E471.97148
G1 X32.476 Y22.222 E472.53957
G1 X33.409 Y22.222 E472.62382
G1 X28.964 Y17.778 E473.19191
G1 X29.896 Y17.778 E473.27615
G1 X34.341 Y22.222 E473.84425
G1 X35.273 Y22.222 E473.92849
G1 X30.828 Y17.778 E474.49658
G1 X31.760 Y17.778 E474.58083
G1 X36.205 Y22.222 E475.14892
G1 X37.137 Y22.222 E475.23317
G1 X32.693 Y17.778 E475.80126
G1 X33.625 Y17.778 E475.88551
G1 X38.070 Y22.222 E476.45360
G1 X39.002 Y22.222 E476.53785
G1 X34.557 Y17.778 E477.10594
G1 X35.489 Y17.778 E477.19018
G1 X39.934 Y22.222 E477.75828
G1 X40.866 Y22.222 E477.84252
G1 X36.421 Y17.778 E478.41061
G1 X37.353 Y17.778 E478.49486
G1 X41.798 Y22.222 E479.06295
G1 X42.730 Y22.222 E479.14720
G1 X38.286 Y17.778 E479.71529
G1 X39.218 Y17.778 E479.79954
G1 X43.663 Y22.222 E480.36763
G1 X44.595 Y22.222 E480.45188
G1 X40.150 Y17.778 E481.01997
G1 X41.082 Y17.778 E481.10422
G1 X45.527 Y22.222 E481.67231
G1 X46.459 Y22.222 E481.75655
G1 X42.014 Y17.778 E482.32465
G1 X42.947 Y17.778 E482.40889
G1 X47.391 Y22.222 E482.97698
G1 X48.324 Y22.222 E483.06123
G1 X43.879 Y17.778 E483.62932
G1 X44.811 Y17.778 E483.71357
G1 X49.256 Y22.222 E484.28166
G1 X50.188 Y22.222 E484.36591
G1 X45.743 Y17.778 E484.93400
G1 X46.675 Y17.778 E485.01825
G1 X51.120 Y22.222 E485.58634
G1 X52.052 Y22.222 E485.67058
G1 X47.608 Y17.778 E486.23868
G1 X48.540 Y17.778 E486.32292
G1 X52.985 Y22.222 E486.89101
G1 X53.917 Y22.222 E486.97526
G1 X49.472 Y17.778 E487.54335
G1 X50.404 Y17.778 E487.62760
G1 X54.849 Y22.222 E488.19569
G1 X55.781 Y22.222 E488.27994
G1 X51.336 Y17.778 E488.84803
G1 X52.268 Y17.778 E488.93228
G1 X56.713 Y22.222 E489.50037
G1 X57.645 Y22.222 E489.58462
G1 X53.201 Y17.778 E490.15271
G1 X54.133 Y17.778 E490.23695
G1 X58.578 Y22.222 E490.80505
G1 X59.510 Y22.222 E490.88929
G1 X55.065 Y17.778 E491.45738
G1 X55.997 Y17.778 E491.54163
G1 X60.442 Y22.222 E492.10972
G1 X61.374 Y22.222 E492.19397
G1 X56.929 Y17.778 E492.76206
G1 X57.862 Y17.778 E492.84631
G1 X62.306 Y22.222 E493.41440
G1 X63.239 Y22.222 E493.49865
G1 X58.794 Y17.778 E494.06674
G1 X59.726 Y17.778 E494.15098
G1 X64.171 Y22.222 E494.71908
G1 X65.103 Y22.222 E494.80332
G1 X60.658 Y17.778 E495.37141
G1 X61.590 Y17.778 E495.45566
G1 X66.035 Y22.222 E496.02375
G1 X66.967 Y22.222 E496.10800
G1 X62.523 Y17.778 E496.67609
G1 X63.455 Y17.778 E496.76034
G1 X67.899 Y22.222 E497.32843
G1 X68.832 Y22.222 E497.41268
G1 X64.387 Y17.778 E497.98077
G1 X65.319 Y17.778 E498.06502
G1 X69.764 Y22.222 E498.63311
G1 X70.696 Y22.222 E498.71735
G1 X66.251 Y17.778 E499.28545
G1 X67.183 Y17.778 E499.36969
G1 X71.628 Y22.222 E499.93778
G1 X72.560 Y22.222 E500.02203
G1 X68.116 Y17.778 E500.59012
G1 X69.048 Y17.778 E500.67437
G1 X73.493 Y22.222 E501.24246
G1 X74.425 Y22.222 E501.32671
G1 X69.980 Y17.778 E501.89480
G1 X70.912 Y17.778 E501.97905
G1 X75.357 Y22.222 E502.54714
G1 X76.289 Y22.222 E502.63138
G1 X71.844 Y17.778 E503.19948
